fonts/xesada/uni0041.svg

<svg width="500" height="850" xmlns="http://www.w3.org/2000/svg">
    <path
        d="M -250 0 L -423.20508 100 L -444.85547 112.5 L -444.85547 137.5 L -423.20508 150 L -271.65039 237.5 L -250 250 L -228.34961 237.5 L -228.34961 212.5 L -250 200 L -379.9043 125 L -250 50 L -98.445312 137.5 L -76.794922 150 L -55.144531 137.5 L -55.144531 112.5 L -250 0 z " />
</svg>

<svg width="500" height="850" xmlns="http://www.w3.org/2000/svg">
    <path d="m-250 0-173.205 100-21.65 12.5v25l21.65 12.5 151.555 87.5L-250 250l21.65-12.5v-25L-250 200l-129.904-75L-250 50l151.555 87.5 21.65 12.5 21.65-12.5v-25z"/>
</svg>
